src/assets/outline/MessageEdit.svg

<svg width="24" height="24" viewBox="0 0 24 24"  xmlns="http://www.w3.org/2000/svg">
<path d="M16 22.75H3C2.04 22.75 1.25 21.96 1.25 21V8C1.25 3.58 3.58 1.25 8 1.25H16C20.42 1.25 22.75 3.58 22.75 8V16C22.75 20.42 20.42 22.75 16 22.75ZM8 2.75C4.42 2.75 2.75 4.42 2.75 8V21C2.75 21.14 2.86 21.25 3 21.25H16C19.58 21.25 21.25 19.58 21.25 16V8C21.25 4.42 19.58 2.75 16 2.75H8Z" />
<path d="M7.94975 17.7498C7.47975 17.7498 7.04975 17.5798 6.72975 17.2698C6.34975 16.8898 6.17972 16.3498 6.26972 15.7698L6.54972 13.7898C6.60972 13.3598 6.87974 12.8098 7.18974 12.4998L12.3797 7.30981C14.1597 5.52981 15.7097 6.32981 16.6897 7.30981C17.4597 8.07981 17.8097 8.88981 17.7297 9.69981C17.6697 10.3598 17.3197 10.9798 16.6897 11.6198L11.4997 16.8098C11.1897 17.1198 10.6497 17.3898 10.2097 17.4598L8.22975 17.7398C8.13975 17.7398 8.03975 17.7498 7.94975 17.7498ZM14.5297 7.74981C14.1597 7.74981 13.8297 7.98981 13.4497 8.35981L8.25974 13.5498C8.17974 13.6298 8.05974 13.8798 8.03974 13.9898L7.75974 15.9698C7.74974 16.0698 7.75972 16.1598 7.79972 16.1998C7.83972 16.2398 7.92973 16.2498 8.02973 16.2398L10.0097 15.9598C10.1297 15.9398 10.3697 15.8198 10.4497 15.7398L15.6397 10.5498C16.0197 10.1698 16.2197 9.83981 16.2497 9.53981C16.2797 9.19981 16.0797 8.79981 15.6397 8.35981C15.1997 7.93981 14.8497 7.74981 14.5297 7.74981Z" />
<path d="M15.4198 12.5797C15.3498 12.5797 15.2798 12.5697 15.2198 12.5497C13.4098 12.0397 11.9598 10.5997 11.4498 8.77972C11.3398 8.37972 11.5698 7.96972 11.9698 7.84972C12.3698 7.73972 12.7798 7.96972 12.8898 8.36972C13.2598 9.67972 14.3098 10.7297 15.6198 11.0997C16.0198 11.2097 16.2498 11.6297 16.1398 12.0297C16.0498 12.3597 15.7498 12.5797 15.4198 12.5797Z" />
</svg>

<?xml version="1.0" encoding="UTF-8"?>
<svg width="24" height="24" viewBox="0 0 24 24" xmlns="http://www.w3.org/2000/svg">
 <path d="m16 22.75h-13c-0.96 0-1.75-0.79-1.75-1.75v-13c0-4.42 2.33-6.75 6.75-6.75h8c4.42 0 6.75 2.33 6.75 6.75v8c0 4.42-2.33 6.75-6.75 6.75zm-8-20c-3.58 0-5.25 1.67-5.25 5.25v13c0 0.14 0.11 0.25 0.25 0.25h13c3.58 0 5.25-1.67 5.25-5.25v-8c0-3.58-1.67-5.25-5.25-5.25h-8z"/>
 <path d="m7.9498 17.75c-0.47 0-0.9-0.17-1.22-0.48-0.38-0.38-0.55003-0.92-0.46003-1.5l0.28-1.98c0.06-0.43 0.33002-0.98 0.64002-1.29l5.19-5.19c1.78-1.78 3.33-0.98 4.31 0 0.77 0.77 1.12 1.58 1.04 2.39-0.06 0.65999-0.41 1.28-1.04 1.92l-5.19 5.19c-0.31 0.31-0.85 0.58-1.29 0.65l-1.98 0.28c-0.09 0-0.19 0.01-0.28 0.01zm6.58-10c-0.37 0-0.7 0.24-1.08 0.61l-5.19 5.19c-0.08 0.08-0.2 0.33-0.22 0.44l-0.28 1.98c-0.01 0.1-2e-5 0.19 0.03998 0.23s0.13001 0.05 0.23001 0.04l1.98-0.28c0.12-0.02 0.36-0.14 0.44-0.22l5.19-5.19c0.38-0.38 0.58-0.70999 0.61-1.01 0.03-0.34-0.17-0.74-0.61-1.18-0.44-0.42-0.79-0.61-1.11-0.61z"/>
 <path d="m15.42 12.58c-0.07 0-0.14-0.01-0.2-0.03-1.81-0.51-3.26-1.95-3.77-3.77-0.11-0.4 0.12-0.81 0.52-0.93 0.4-0.11 0.81 0.12 0.92 0.52 0.37 1.31 1.42 2.36 2.73 2.73 0.4 0.11 0.63 0.53 0.52 0.93-0.09 0.33-0.39 0.55-0.72 0.55z"/>
</svg>
